X:1
T:Title
%%score { ( 1 3 ) | 2 }
L:1/8
M:6/8
K:Eb
V:1 treble nm="Grand Piano"
V:3 treble 
V:2 bass 
V:1
 z3 z2[Q:1/4=84] E | GGG G2 F | EG[GB] [GB]2 [GB] | [Ac][GB]G F2 E | A3- A2 A | %5
 [FA][DF][EG] [FA]2 [DAc] | [Ac][GB][_G=A] [=GB]2 G | FBd d2 c | [DB]3- [DB]2 [DB] | %9
 [DB][DF][EG] [FA]2 [Dc] | BEF G2 B | cBG [CEF]2 [CE] | [Ec]3- [Ec]2 [EAc] | [GB][Gc][Gd] [Ge]2 G | %14
 GAB c2 [Ec] | [EB][B,EG][CEA] [B,EG]2 [A,DF] |[M:5/8] [G,E]-[G,E]- [G,E]3 |[M:1/8] [GB] | %18
[M:3/4] [GB][Ge] [Gd] [Gc]2 G | A6 | [FA][Ad] [Ac] [GB]2 [FA] |[M:5/8] G-G- G3 |[M:1/8] [GB] | %23
[M:3/4] [GB][Gc] [Gd] [Ge]2 [EG] |[M:7/8] [EG][EA][EB] [Ec]3 [Ec] | %25
[M:3/4] [EB][B,EG] [CEA] [B,EG]2 [A,DF] |[M:5/8] [G,E]-[G,E]- [G,E]3 |] %27
V:2
 z3 z2 [E,G,] | [E,B,E][E,B,E][E,B,E] [E,B,E]2 [E,A,B,] | [E,G,B,][E,B,E][E,E] [E,E]2 [E,E] | %3
 [E,E][E,E][E,B,E] [A,CE]2 [G,B,] | [F,B,D]3- [F,B,D]2 [F,B,D] | %5
 [B,,B,][B,,B,][B,,B,] [B,,B,]2 B,, | [E,E][E,E][E,E] [E,E]2 [E,B,E] | %7
 [F,B,D][F,B,D][F,B,F] [F,=A,F]2 [F,A,E] | [B,,B,]3- [B,,B,]2 [B,,F,] | %9
 [B,,F,][B,,B,][B,,B,] [B,,B,]2 [B,,A,] | [E,G,E][E,G,][E,A,E] [E,B,E]2 [E,G,E] | %11
 [E,A,E][E,G,E][E,_DE] A,,2 A,, | [A,,A,]3- [A,,A,]2 C, | [E,E][E,E][E,E] [E,B,]2 [E,B,E] | %14
 [E,B,E][F,B,D][G,B,E] [A,E]2 [A,,A,] | [B,,G,]B,,B,, B,,2 B,, |[M:5/8] E,-E,- E,3 |[M:1/8] [E,E] | %18
[M:3/4] [E,E][E,E] [E,E] [E,E]2 [E,B,E] | [F,A,C]2 [F,A,] [F,A,]2 [F,A,C] | %20
 [B,,B,][B,,B,] [B,,B,] [B,,B,]2 [B,,B,] |[M:5/8] [E,B,E]2 [E,B,] [E,B,]2 |[M:1/8] [E,E] | %23
[M:3/4] [E,E][E,E] [E,E] [E,B,]2 [E,B,] |[M:7/8] [_D,B,][C,A,][B,,G,] [A,,A,]3 [A,,A,] | %25
[M:3/4] [B,,G,]B,, B,, B,,2 B,, |[M:5/8] E,-E,- E,3 |] %27
V:3
 x6 | x6 | x6 | x6 | x6 | x6 | x6 | x6 | x6 | x6 | x6 | x6 | x6 | x6 | x6 | x6 |[M:5/8] x5 | %17
[M:1/8] x |[M:3/4] x6 | z2 C C2 A | x6 |[M:5/8] z2 E E2 |[M:1/8] x |[M:3/4] x6 |[M:7/8] x7 | %25
[M:3/4] x6 |[M:5/8] x5 |] %27

